assets/Woman scientist/Medium-Light/Flat/woman_scientist_flat_medium-light.svg

<svg width="32" height="32" viewBox="0 0 32 32" fill="none" xmlns="http://www.w3.org/2000/svg">
<path d="M23.178 11.9242C23.3864 11.4886 23.5 11.0057 23.5 10.4943C23.5 9.82197 23.3011 9.19697 22.9508 8.67614C22.6004 8.1553 22.4205 7.53977 22.4205 6.9053V6.89583C22.4205 5.07765 20.9432 3.60038 19.125 3.60038C18.9451 3.60038 18.7746 3.51515 18.6705 3.37311C18.0833 2.53977 17.108 2 16 2C14.9015 2 13.9261 2.53977 13.3295 3.37311C13.2254 3.52462 13.0549 3.60985 12.875 3.60985C11.0568 3.60985 9.57955 5.08712 9.57955 6.9053V6.91477C9.57955 7.54924 9.39962 8.1553 9.04924 8.68561C8.70833 9.19697 8.5 9.82197 8.5 10.4943C8.5 11.0057 8.61364 11.4886 8.82197 11.9242C8.88826 12.0663 8.88826 12.2367 8.82197 12.3788C8.61364 12.8049 8.5 13.2784 8.5 13.7898C8.5 15.5606 9.93939 17 11.7102 17H20.2803C22.0511 17 23.4905 15.5606 23.4905 13.7898C23.4905 13.2879 23.3769 12.8049 23.1686 12.3788C23.1117 12.2367 23.1117 12.0663 23.178 11.9242Z" fill="#FFF9BA"/>
<path d="M9 18.0111C9.38214 17.6957 9.78597 17.4057 10.2089 17.1435L16 17L21.7195 17.1046C22.1685 17.3787 22.5963 17.6841 23 18.0177L24 24L23 30H9L8 24L9 18.0111Z" fill="#E6E6E6"/>
<path d="M16.5 24.3302V30H15.5V24.1998L11.5 17.5L12.8463 15.9579L16 15.5L19.1475 15.9579L20.5 17.5L16.5 24.3302Z" fill="#8B62BF"/>
<path d="M23 18.0279C25.4423 20.0463 27 23.0981 27 26.5101V30.0001H23V18.0279Z" fill="#F4F4F4"/>
<path d="M19.2137 15.988C20.1634 16.2782 21.0587 16.6936 21.8804 17.2149L22.07 19.2102C22.08 19.3302 22 19.4402 21.88 19.4602L21.09 19.6002C20.91 19.6302 20.84 19.8402 20.96 19.9802L21.72 20.8202C21.8 20.9102 21.8 21.0502 21.71 21.1402L16.83 26.1202C16.71 26.2402 16.5 26.1502 16.5 25.9802V22.3702C16.5 22.3302 16.51 22.2902 16.52 22.2602L19.2137 15.988Z" fill="#F4F4F4"/>
<path d="M10.1227 17.2077C10.9442 16.6879 11.8394 16.2741 12.7894 15.9851L15.48 22.2402L15.4851 22.26C15.4931 22.2908 15.5 22.317 15.5 22.3502V25.9602C15.5 26.1402 15.29 26.2202 15.17 26.1002L10.29 21.1202C10.2 21.0302 10.2 20.9002 10.28 20.8002L11.04 19.9702C11.16 19.8402 11.09 19.6202 10.91 19.5902L10.12 19.4502C9.99995 19.4202 9.91995 19.3202 9.93995 19.1902L10.1227 17.2077Z" fill="#F4F4F4"/>
<path d="M9 18.0212V30.0001H5V26.5101C5 23.0906 6.55631 20.038 9 18.0212Z" fill="#F4F4F4"/>
<path d="M27 23C27.55 23 28 23.4103 28 23.9119V26H26V23.9119C26.01 23.4103 26.45 23 27 23Z" fill="#E4B29A"/>
<path d="M27.22 20H27V21.4399L25.5 22.5L24 21.4399V20H23.78C23.61 20 23.47 19.7941 23.47 19.5441V19.4559C23.47 19.2059 23.61 19 23.78 19H27.22C27.39 19 27.53 19.2059 27.53 19.4559V19.5441C27.52 19.7941 27.38 20 27.22 20Z" fill="#B4F6FC"/>
<path d="M27 21.4399H24V27.7499H27V21.4399Z" fill="#C3EF3C"/>
<path d="M24.2842 22.3299H24.6983C24.7429 22.3299 24.7835 22.2399 24.7795 22.1299V22.0899C24.7795 21.9799 24.7429 21.8899 24.6983 21.8899H24.2842C24.2395 21.8899 24.203 21.9799 24.203 22.0899V22.1299C24.203 22.2399 24.2395 22.3299 24.2842 22.3299Z" fill="#008463"/>
<path d="M24.2842 24.1199H24.6983C24.7429 24.1199 24.7835 24.0299 24.7795 23.9199V23.8799C24.7795 23.7699 24.7429 23.6799 24.6983 23.6799H24.2842C24.2395 23.6799 24.203 23.7699 24.203 23.8799V23.9199C24.203 24.0299 24.2395 24.1199 24.2842 24.1199Z" fill="#008463"/>
<path d="M23.5091 25.5C23.5182 25.1 23.837 24.75 24.2105 24.75H27.2075C27.6447 24.75 28 25.14 28 25.62V29.13C28 29.61 27.6447 30 27.2075 30H24.2105C23.837 30 23.5182 29.69 23.5091 29.28C23.5 29.01 23.6184 28.77 23.8097 28.63C23.6184 28.5 23.5 28.27 23.5 28.01C23.5 27.75 23.6275 27.52 23.8097 27.39C23.6184 27.26 23.5 27.03 23.5 26.77C23.5 26.51 23.6275 26.28 23.8097 26.15C23.6275 26.01 23.5 25.77 23.5091 25.5Z" fill="#EEBFAA"/>
<path d="M16 18.5C14.8932 18.5 14 17.5359 14 16.3413V13.6587C14 12.4641 14.8932 11.5 16 11.5C17.1068 11.5 18 12.4641 18 13.6587V16.3413C18 17.5359 17.1068 18.5 16 18.5Z" fill="#E4B29A"/>
<path d="M19.911 7.35994H16.7386C15.4791 7.35994 14.3049 6.73494 13.5947 5.70274C13.4716 5.53229 13.2159 5.5607 13.1401 5.75956L13.0644 5.94896C12.8276 6.4982 12.4015 6.92433 11.8712 7.16108C11.8428 7.17055 11.8049 7.18949 11.767 7.19896C11.5397 7.32206 10.9905 7.68191 10.9716 8.62888L11.1041 11.7918C11.2178 14.5948 13.3769 16.4698 16 16.4698C18.6231 16.4698 20.7822 14.5948 20.8958 11.7918L21.0189 8.7804C21.0189 7.45464 20.0909 7.35994 19.911 7.35994Z" fill="#EEBFAA"/>
<path d="M15.6541 10.2897L15.1583 12.0282C15.0554 12.384 15.2986 12.75 15.6447 12.75H16.3743C16.7204 12.75 16.9636 12.384 16.8607 12.0282L16.365 10.2897C16.2621 9.90342 15.7663 9.90342 15.6541 10.2897Z" fill="#D19479"/>
<path d="M18.7244 6.5H13.316C11.7809 6.5 10.5102 7.71664 10.5 9.24497C10.5 10.7633 11.7504 12 13.2855 12C14.2513 12 15.1053 11.5073 15.6034 10.7633C15.7966 10.4817 16.2134 10.4817 16.4065 10.7633C16.925 11.5274 17.8094 12.0201 18.8159 11.9899C20.2595 11.9397 21.4794 10.7029 21.4998 9.27514C21.5201 7.75686 20.2697 6.5 18.7244 6.5Z" fill="#E4B29A"/>
<path d="M13.3959 9.19678C13.9546 9.19678 14.4092 9.58504 14.7027 10.0206C14.4724 10.0901 14.2484 10.1542 14.0268 10.2177C13.5834 10.3447 13.1498 10.4688 12.6952 10.6267L12.2217 10.2006C12.0323 10.0206 12.0418 9.69867 12.2596 9.54716C12.5721 9.31988 12.9982 9.19678 13.3959 9.19678Z" fill="black"/>
<path d="M18.6136 9.19678C18.0549 9.19678 17.5909 9.58504 17.3068 10.0206C17.5537 10.0961 17.7944 10.1653 18.0338 10.2342C18.4555 10.3555 18.8734 10.4757 19.3143 10.6267L19.7878 10.2006C19.9772 10.0206 19.9677 9.69867 19.7499 9.54716C19.4374 9.31988 19.0113 9.19678 18.6136 9.19678Z" fill="black"/>
<path d="M13.5662 9.3011C12.9128 9.3011 12.3636 9.74618 12.2121 10.3522C12.1742 10.5227 12.3068 10.6931 12.4867 10.6931H14.7121C14.8541 10.6931 14.9677 10.5606 14.9393 10.428C14.8068 9.78406 14.248 9.3011 13.5662 9.3011Z" fill="white"/>
<path d="M18.4338 9.30103C19.0872 9.30103 19.6364 9.7461 19.788 10.3522C19.8258 10.5226 19.6933 10.6931 19.5228 10.6931H17.2974C17.1554 10.6931 17.0417 10.5605 17.0701 10.4279C17.1933 9.78398 17.7614 9.30103 18.4338 9.30103Z" fill="white"/>
<path d="M12.8845 10.4566C12.8845 9.96413 13.2822 9.56641 13.7747 9.56641C14.2671 9.56641 14.6648 9.96413 14.6648 10.4566C14.6648 10.5323 14.6554 10.6175 14.6269 10.6933H12.9129C12.894 10.6175 12.8845 10.5418 12.8845 10.4566Z" fill="#7D4533"/>
<path d="M19.1156 10.4566C19.1156 9.96413 18.7179 9.56641 18.2255 9.56641C17.733 9.56641 17.3353 9.96413 17.3448 10.4566C17.3448 10.5418 17.3542 10.6175 17.3732 10.6933H19.0872C19.1061 10.6175 19.1156 10.5418 19.1156 10.4566Z" fill="#7D4533"/>
<path d="M13.7651 9.94482C14.0492 9.94482 14.2765 10.1721 14.2765 10.4562C14.2765 10.5414 14.2576 10.6172 14.2102 10.6929H13.3106C13.2727 10.6172 13.2538 10.5414 13.2538 10.4562C13.2538 10.1721 13.4811 9.94482 13.7651 9.94482Z" fill="black"/>
<path d="M18.2349 9.94482C17.9508 9.94482 17.7235 10.1721 17.7235 10.4562C17.7235 10.5414 17.7425 10.6172 17.7898 10.6929H18.6894C18.7273 10.6172 18.7462 10.5414 18.7462 10.4562C18.7462 10.1721 18.519 9.94482 18.2349 9.94482Z" fill="black"/>
<path d="M13.6326 10.1058C13.6326 10.1947 13.5606 10.2668 13.4717 10.2668C13.3827 10.2668 13.3107 10.1947 13.3107 10.1058C13.3107 10.0169 13.3827 9.94482 13.4717 9.94482C13.5606 9.94482 13.6326 10.0169 13.6326 10.1058Z" fill="white"/>
<path d="M18.0928 10.1058C18.0928 10.1947 18.0208 10.2668 17.9319 10.2668C17.8429 10.2668 17.7709 10.1947 17.7709 10.1058C17.7709 10.0169 17.8429 9.94482 17.9319 9.94482C18.0208 9.94482 18.0928 10.0169 18.0928 10.1058Z" fill="white"/>
<path d="M16.0005 13.7057C15.45 13.7057 14.9301 13.5669 14.4918 13.3212C14.3389 13.2358 14.186 13.4174 14.2777 13.5669C14.6447 14.1542 15.2767 14.5493 16.0005 14.5493C16.7243 14.5493 17.3563 14.1542 17.7233 13.5669C17.8151 13.4174 17.652 13.2465 17.5093 13.3212C17.0607 13.5669 16.551 13.7057 16.0005 13.7057Z" fill="#990838"/>
<path d="M19.3996 8.6478C19.4375 8.67621 19.4848 8.68568 19.5322 8.68568C19.6269 8.68568 19.7121 8.63833 19.7594 8.54363C19.8352 8.41106 19.7973 8.25007 19.6647 8.17431C19.6363 8.15537 18.7651 7.67242 17.7708 7.85234C17.6193 7.88075 17.5246 8.0228 17.553 8.16484C17.5814 8.31636 17.7235 8.41106 17.8655 8.38265C18.6018 8.2527 19.2668 8.58239 19.3821 8.63952C19.3928 8.64484 19.3996 8.6478 19.3996 8.6478Z" fill="#A56953"/>
<path d="M12.2309 8.55293C12.2878 8.63815 12.373 8.6855 12.4677 8.6855C12.515 8.6855 12.5624 8.67603 12.6003 8.65709C12.6097 8.64762 13.3294 8.2499 14.1344 8.39194C14.2859 8.42035 14.4184 8.31618 14.4374 8.17414C14.4658 8.03209 14.3616 7.89005 14.2196 7.86164C13.2663 7.68007 12.4349 8.12516 12.3345 8.17892C12.3302 8.18124 12.3256 8.18361 12.3256 8.18361C12.2025 8.25937 12.1552 8.42035 12.2309 8.55293Z" fill="#A56953"/>
<path d="M10.2363 9.24325C10.2475 7.56394 11.6421 6.23633 13.316 6.23633H18.7244C20.4137 6.23633 21.7858 7.61045 21.7635 9.2787C21.7411 10.8491 20.4072 12.1984 18.8251 12.2535L18.8238 12.2536C17.724 12.2865 16.756 11.7475 16.1888 10.912C16.1005 10.7839 15.9101 10.7838 15.8215 10.9115C15.2763 11.7249 14.3421 12.2637 13.2855 12.2637C11.6076 12.2637 10.2363 10.9116 10.2363 9.245L10.2363 9.24325ZM10.7637 9.24588C10.7642 10.6154 11.8937 11.7363 13.2855 11.7363C14.1599 11.7363 14.9331 11.2905 15.3843 10.6166L15.386 10.6141C15.6839 10.1799 16.3261 10.1799 16.624 10.6141L16.6248 10.6152C17.0945 11.3075 17.8949 11.7535 18.8074 11.7264C20.1121 11.6806 21.2177 10.5565 21.2361 9.27163C21.2544 7.90332 20.1256 6.76373 18.7244 6.76373H13.316C11.9201 6.76373 10.7734 7.86892 10.7637 9.24588Z" fill="#9B9B9B"/>
</svg>

<svg xmlns="http://www.w3.org/2000/svg" width="32" height="32" fill="none"><path fill="#FFF9BA" d="M23.178 11.924c.208-.435.322-.918.322-1.43 0-.672-.199-1.297-.55-1.818a3.162 3.162 0 0 1-.53-1.77v-.01A3.298 3.298 0 0 0 19.126 3.6a.565.565 0 0 1-.454-.227A3.252 3.252 0 0 0 16 2c-1.098 0-2.074.54-2.67 1.373a.549.549 0 0 1-.455.237A3.298 3.298 0 0 0 9.58 6.905v.01c0 .634-.18 1.24-.53 1.77a3.262 3.262 0 0 0-.55 1.81c0 .51.114.994.322 1.43a.544.544 0 0 1 0 .454A3.213 3.213 0 0 0 11.71 17h8.57c1.771 0 3.21-1.44 3.21-3.21 0-.502-.113-.985-.321-1.411a.583.583 0 0 1 .009-.455Z"/><path fill="#E6E6E6" d="M9 18.011c.382-.315.786-.605 1.209-.867L16 17l5.72.105c.449.274.876.58 1.28.913L24 24l-1 6H9l-1-6 1-5.989Z"/><path fill="#8B62BF" d="M16.5 24.33V30h-1v-5.8l-4-6.7 1.346-1.542L16 15.5l3.148.458L20.5 17.5l-4 6.83Z"/><path fill="#F4F4F4" d="M23 18.028a10.98 10.98 0 0 1 4 8.482V30h-4V18.028ZM19.214 15.988c.95.29 1.845.706 2.666 1.227l.19 1.995c.01.12-.07.23-.19.25l-.79.14c-.18.03-.25.24-.13.38l.76.84c.08.09.08.23-.01.32l-4.88 4.98c-.12.12-.33.03-.33-.14v-3.61c0-.04.01-.08.02-.11l2.694-6.272ZM10.123 17.208c.821-.52 1.716-.934 2.666-1.223l2.691 6.255.005.02c.008.03.015.057.015.09v3.61c0 .18-.21.26-.33.14l-4.88-4.98c-.09-.09-.09-.22-.01-.32l.76-.83a.23.23 0 0 0-.13-.38l-.79-.14c-.12-.03-.2-.13-.18-.26l.183-1.982ZM9 18.021v11.98H5v-3.49c0-3.42 1.556-6.473 4-8.49Z"/><path fill="#E4B29A" d="M27 23c.55 0 1 .41 1 .912V26h-2v-2.088c.01-.502.45-.912 1-.912Z"/><path fill="#B4F6FC" d="M27.22 20H27v1.44l-1.5 1.06-1.5-1.06V20h-.22c-.17 0-.31-.206-.31-.456v-.088c0-.25.14-.456.31-.456h3.44c.17 0 .31.206.31.456v.088c-.01.25-.15.456-.31.456Z"/><path fill="#C3EF3C" d="M27 21.44h-3v6.31h3v-6.31Z"/><path fill="#008463" d="M24.284 22.33h.414c.045 0 .085-.09.081-.2v-.04c0-.11-.036-.2-.08-.2h-.415c-.044 0-.081.09-.081.2v.04c0 .11.037.2.081.2ZM24.284 24.12h.414c.045 0 .085-.09.081-.2v-.04c0-.11-.036-.2-.08-.2h-.415c-.044 0-.081.09-.081.2v.04c0 .11.037.2.081.2Z"/><path fill="#EEBFAA" d="M23.51 25.5c.008-.4.327-.75.7-.75h2.997c.438 0 .793.39.793.87v3.51c0 .48-.355.87-.793.87H24.21c-.373 0-.692-.31-.7-.72-.01-.27.108-.51.3-.65a.74.74 0 0 1-.31-.62c0-.26.128-.49.31-.62a.74.74 0 0 1-.31-.62c0-.26.128-.49.31-.62a.79.79 0 0 1-.3-.65Z"/><path fill="#E4B29A" d="M16 18.5c-1.107 0-2-.964-2-2.159V13.66c0-1.195.893-2.159 2-2.159s2 .964 2 2.159v2.682c0 1.195-.893 2.159-2 2.159Z"/><path fill="#EEBFAA" d="M19.911 7.36h-3.172a3.82 3.82 0 0 1-3.144-1.657.258.258 0 0 0-.455.057l-.076.189c-.236.55-.662.975-1.193 1.212-.028.01-.066.028-.104.038-.227.123-.776.483-.795 1.43l.132 3.163c.114 2.803 2.273 4.678 4.896 4.678 2.623 0 4.782-1.875 4.896-4.678l.123-3.012c0-1.325-.928-1.42-1.108-1.42Z"/><path fill="#D19479" d="m15.654 10.29-.496 1.738c-.103.356.14.722.487.722h.73c.345 0 .589-.366.486-.722l-.496-1.738c-.103-.387-.599-.387-.71 0Z"/><path fill="#E4B29A" d="M18.724 6.5h-5.408c-1.535 0-2.806 1.217-2.816 2.745 0 1.518 1.25 2.755 2.786 2.755.965 0 1.82-.493 2.317-1.237a.487.487 0 0 1 .804 0 2.795 2.795 0 0 0 2.409 1.227c1.444-.05 2.663-1.287 2.684-2.715.02-1.518-1.23-2.775-2.776-2.775Z"/><path fill="#000" d="M13.396 9.197c.559 0 1.013.388 1.307.824-.23.07-.455.133-.676.197-.444.127-.877.25-1.332.409l-.473-.426c-.19-.18-.18-.502.038-.654a1.99 1.99 0 0 1 1.136-.35ZM18.614 9.197c-.56 0-1.023.388-1.307.824.247.075.487.144.727.213.422.121.84.242 1.28.393l.474-.426c.19-.18.18-.502-.038-.654a1.99 1.99 0 0 0-1.136-.35Z"/><path fill="#fff" d="M13.566 9.301c-.653 0-1.202.445-1.354 1.051-.038.17.095.341.275.341h2.225c.142 0 .256-.132.227-.265a1.401 1.401 0 0 0-1.373-1.127ZM18.434 9.301c.653 0 1.202.445 1.354 1.051.038.17-.095.341-.265.341h-2.226c-.142 0-.255-.133-.227-.265A1.391 1.391 0 0 1 18.434 9.3Z"/><path fill="#7D4533" d="M12.884 10.457a.89.89 0 1 1 1.78 0c0 .075-.009.16-.037.236h-1.714a.956.956 0 0 1-.029-.236ZM19.116 10.457a.89.89 0 0 0-.89-.89.875.875 0 0 0-.881.89c0 .085.01.16.028.236h1.714a.956.956 0 0 0 .029-.236Z"/><path fill="#000" d="M13.765 9.945a.51.51 0 0 1 .511.511.427.427 0 0 1-.066.237h-.9a.513.513 0 0 1 .455-.748ZM18.235 9.945a.51.51 0 0 0-.511.511c0 .085.018.161.066.237h.9a.513.513 0 0 0-.455-.748Z"/><path fill="#fff" d="M13.633 10.106a.16.16 0 1 1-.322 0 .16.16 0 0 1 .322 0ZM18.093 10.106a.16.16 0 1 1-.322 0 .16.16 0 0 1 .322 0Z"/><path fill="#990838" d="M16 13.706c-.55 0-1.07-.14-1.508-.385-.153-.085-.306.096-.214.246.367.587.999.982 1.722.982.724 0 1.356-.395 1.723-.982.092-.15-.071-.32-.214-.246a3.118 3.118 0 0 1-1.509.385Z"/><path fill="#A56953" d="M19.4 8.648a.217.217 0 0 0 .132.038c.095 0 .18-.048.227-.142a.265.265 0 0 0-.094-.37c-.029-.019-.9-.502-1.894-.322a.267.267 0 0 0-.218.313c.028.151.17.246.313.218.736-.13 1.4.2 1.516.257l.018.008ZM12.23 8.553a.282.282 0 0 0 .238.132c.047 0 .094-.009.132-.028.01-.01.73-.407 1.534-.265a.256.256 0 0 0 .303-.218c.029-.142-.075-.284-.217-.312-.954-.182-1.785.263-1.886.317l-.008.005a.273.273 0 0 0-.095.369Z"/><path fill="#9B9B9B" d="M10.236 9.243c.011-1.68 1.406-3.007 3.08-3.007h5.408c1.69 0 3.062 1.374 3.04 3.043-.023 1.57-1.357 2.92-2.939 2.975h-.001a3.06 3.06 0 0 1-2.635-1.342.224.224 0 0 0-.367 0 3.052 3.052 0 0 1-2.536 1.352c-1.678 0-3.05-1.352-3.05-3.019v-.002Zm.528.003c0 1.37 1.13 2.49 2.522 2.49.874 0 1.647-.446 2.098-1.12l.002-.002a.751.751 0 0 1 1.238 0v.001a2.532 2.532 0 0 0 2.183 1.111c1.305-.045 2.41-1.17 2.43-2.454.017-1.369-1.111-2.508-2.513-2.508h-5.408c-1.396 0-2.543 1.105-2.552 2.482Z"/></svg>
